X:43
T:The Swallowtail Jig                                                                               
M:6/8                                                                                               
L:1/8                                                                                               
K:EDor                                                                                              
(EF)|:GEE BEE|GEE (BAG)|FDD ADD|(dcd) (AGF)|                                                        
GEE BEE GEE (B2 c)|(dcd) (AGF)|1 (GE)E EEF:|2(GE)E E2 B|                                            
|:(Bcd) (e2 f)|(e2 f) (edB)|(Bcd) (e2 f)|(edB) (d2 d)|                                              
(Bcd) (e2 f)|(e2 f) (edB)|(dcd) (AGA)|1 (GE)D E2 B :|2 (GE)D E3 |>|
